X:1
T:Title
%%score { ( 1 4 ) | ( 2 3 ) }
L:1/8
M:4/4
K:Ab
V:1 treble nm="Grand Piano"
V:4 treble 
V:2 treble 
V:3 treble 
V:1
 z4 z2[Q:1/4=100] E2 | c4 d3 [EAc] | [EGc][DGB][DGB][C_G=A] [D=GB]3 E | [DGB]4 [Gc]3 [DGB] | %4
 [DEB][CEA][CEA][_C=DF] [=CE]3 [CE] | e4 f3 e | [=Ae]ddc d3 d | [Gd][Gc][Gc][GB] BA=D-[DF] | %8
 z2 z F G2 [CEA]2 | [DGB]2 [CA]2 [EGc]3 [DGB] | [CFA]4 [Af]4 | %11
[M:3/4] [Ae]2 [EAc]2 (3:2:2[DG-B]2 [Gc]- | [Gc] z (3:2:2z [CA]2- [CA]2- | [CA]4 z2 |] %14
V:2
 z4 z2 [A,C]2 | [A,A]8[K:bass] | E,E,E,E, E,3 E, | z4 E3 E, | A,,A,,A,,A,, A,,3 A,, | %5
 [A,A]4- [A,DA]3 [A,CA] | [F,C][F,B,F][K:treble][F,B,F][F,=A,F] [B,F]3 [B,F] | %7
 [E,B,][E,E][E,E][E,D] [F,F]-[F,CF] z A, | G,3 A, B,2 E,2 | E,2 E,2 E,3 =E, | F,4 [=D,_C]4 | %11
[M:3/4] [E,C]2 E,2 (3:2:2z2 E- | E2 (3:2:2z A,,2- A,,2- | A,,4 z2 |] %14
V:3
 x8 | E4 F3[K:bass] A, | x8 | E,8 | x8 | C4 z4 | x2[K:treble] x6 | z4 .D2 B,,2 | E,6 z2 | x8 | x8 | %11
[M:3/4] z2 z2 E,2- | E, .E,3 z2 | x6 |] %14
V:4
 x8 | x8 | x8 | x8 | x8 | x8 | x8 | z4 z2 .[B,G]2 | E4 z4 | x8 | x8 |[M:3/4] x6 | z .[DGB]3 z2 | %13
 x6 |] %14

